!!!OTL: 651. Vom Kuessen.
!!!ODT: 1880
!!!ARE: Europa, Mitteleuropa, Deutschland, Hessen, Unter - Taunus; Dillkreis
!!!SCT: E0651
!!!TXL: @@DE
!!!YEM: Copyright 1995, estate of Helmut Schaffrath.
**kern	**text
*ICvox	*
*M3/4	*
*k[]	*
*C:	*
!LO:TX:a:t=Heiter.	!
!LO:TX:a:t=Aus dem Untertaunus und Dillkreis. 1880.	!
{8g	Die
8g	Mut-
8g	-ter
=1	=1
4.e	ſpricht
8e	Jch
8e	will's
8e	nicht
=2	=2
8eL	lei-
8aJ	.
8g}	-den,
{8g	daß
8f	Nachbars
8e	.
=3	=3
4.d	Fritʒ
8e	dich
8f	im-
8a	-mer
=4	=4
4g	küßt!
8r}	.
{8e	al-
8e	-lein
8f	ich
=5	=5
4.g	kann
8cc	ihn
8cc	ja
8cc	nicht
=6	=6
4b	mei-
8a}	-den,
{8dd	weil
8b	er
8a	ein
=7	=7
4.g	lie-
8g	-ber
8a	Jun-
8b	-ge
=8	=8
4cc	iſt.
8r}	.
==	==
!!!AGN: Liebes - Lied
!!!ONB: ESAC (Essen Associative Code) Database: ERK2
!!!AMT: simple triple
!!!AIN: vox
!!!EED: Helmut Schaffrath
!!!EEV: 1.0
!!!GTL: Liebeslieder [Neuere (aus dem 18. bis 19. Jahrh.) - Liebeslust]
!!!URL-scan: https://rosdok.uni-rostock.de/mcrviewer/recordIdentifier/rosdok_ppn745177662/iview2/phys_0461.iview2?x=147.94924891872552&y=1729.7538041337393&scale=0.7029437510502773&rotation=0&layout=singlePageLayout
!!!ENC: Anna Maria Matuszewska
!!!EEV: 2024/12/12
*-	*-
